<?xml version="1.0" encoding="UTF-8"?>
<map version="1.10" tiledversion="1.11.2" orientation="orthogonal" renderorder="right-down" width="17" height="12" tilewidth="16" tileheight="16" infinite="0" nextlayerid="9" nextobjectid="1">
 <tileset firstgid="1" source="tileset.tsx"/>
 <tileset firstgid="1301" source="modern_interior.tsx"/>
 <tileset firstgid="2725" source="meme_1.tsx"/>
 <layer id="1" name="floor" width="17" height="12">
  <data encoding="csv">
616,616,616,616,616,616,616,616,616,616,616,616,616,616,616,616,616,
616,616,616,616,616,616,616,616,616,616,616,616,616,616,616,616,616,
616,616,616,616,616,616,616,616,616,616,616,616,616,616,616,616,616,
616,616,616,616,616,616,616,616,616,616,616,616,616,616,616,616,616,
616,616,616,616,616,616,616,616,616,616,616,616,616,616,616,616,616,
616,616,616,616,616,616,616,616,616,616,616,616,616,616,616,616,616,
616,616,616,616,616,616,616,616,616,616,616,616,616,616,616,616,616,
616,616,616,616,616,616,616,616,616,616,616,616,616,616,616,616,616,
616,616,616,616,616,616,616,616,616,616,616,616,616,616,616,616,616,
616,616,616,616,616,616,616,616,616,616,616,616,616,616,616,616,616,
616,616,616,616,616,616,616,616,616,616,616,616,616,616,616,616,616,
616,616,616,616,616,616,616,616,616,616,616,616,616,616,616,616,616
</data>
 </layer>
 <layer id="2" name="collisionwall" width="17" height="12">
  <data encoding="csv">
407,408,408,408,408,408,408,408,408,408,408,408,408,408,408,408,409,
459,873,873,873,820,873,873,873,873,820,873,820,820,873,820,820,461,
511,926,926,820,926,926,926,820,926,926,820,926,820,820,820,820,513,
563,564,564,564,564,564,564,564,564,564,564,564,564,564,564,564,565,
563,0,0,0,0,0,0,0,0,0,0,0,0,0,0,0,565,
563,0,0,0,0,0,0,0,0,0,0,0,0,0,0,0,565,
563,0,0,0,0,0,0,0,0,0,0,0,0,0,0,0,565,
563,0,0,0,0,0,0,0,0,0,0,0,0,0,0,0,565,
563,0,0,0,0,0,0,0,0,0,0,0,0,0,0,0,565,
563,0,0,0,0,0,0,0,0,0,0,0,0,0,0,0,565,
615,0,0,0,0,0,0,0,0,0,0,0,0,0,0,0,617,
667,668,668,668,668,668,668,0,0,0,668,668,668,668,668,668,669
</data>
 </layer>
 <layer id="4" name="carpet" width="17" height="12">
  <data encoding="csv">
0,0,0,0,0,0,0,0,0,0,0,0,0,0,0,0,0,
0,0,0,0,0,0,0,0,0,0,0,0,0,0,0,0,0,
0,0,0,0,0,0,0,0,0,0,0,0,0,0,0,0,0,
0,0,0,0,0,0,0,0,0,0,0,0,0,0,0,0,0,
0,0,1759,1761,1761,1761,1761,1761,1761,1761,1761,1761,1761,1761,1760,0,0,
0,0,1775,1777,1777,1777,1777,1777,1777,1777,1777,1777,1777,1777,1776,0,0,
0,0,0,0,0,0,0,0,0,0,0,0,0,0,0,0,0,
0,0,0,0,0,0,0,0,0,0,0,0,0,0,0,0,0,
0,0,0,0,0,0,0,0,0,0,0,0,0,0,0,0,0,
0,0,0,0,0,0,0,0,0,0,0,0,0,0,0,0,0,
0,0,0,0,0,0,0,1973,1974,1975,0,0,0,0,0,0,0,
0,0,0,0,0,0,0,1989,1990,1991,0,0,0,0,0,0,0
</data>
 </layer>
 <layer id="6" name="Vases" width="17" height="12">
  <data encoding="csv">
0,0,0,0,0,0,0,0,0,0,0,0,0,0,0,0,0,
0,0,0,0,0,0,0,0,0,0,0,0,0,0,0,0,0,
0,2359,2359,2389,2389,2359,2359,2359,2359,2358,2389,2359,2358,2389,2358,2359,0,
0,2375,2375,2405,2405,2375,2375,2375,2375,2374,2405,2375,2374,2405,2374,2375,0,
0,0,0,0,0,0,0,0,0,0,0,0,0,0,0,0,0,
0,0,0,0,0,0,0,0,0,0,0,0,0,0,0,0,0,
0,0,0,0,0,0,0,0,0,0,0,0,0,0,0,0,0,
0,0,0,0,0,0,0,0,0,0,0,0,0,0,0,0,0,
0,2359,0,0,0,0,0,0,0,0,0,0,0,0,0,0,0,
0,2375,0,0,0,0,0,0,0,0,0,0,0,0,0,0,0,
0,0,0,0,0,0,0,0,0,0,0,0,0,0,0,0,0,
0,0,0,0,0,0,0,0,0,0,0,0,0,0,0,0,0
</data>
 </layer>
 <layer id="3" name="CollisionDec1" width="17" height="12">
  <data encoding="csv">
0,0,0,0,0,0,0,0,0,0,0,0,0,0,0,0,0,
0,0,0,0,0,0,0,0,0,0,0,0,0,0,0,0,0,
0,2015,2016,0,0,0,0,0,0,0,0,0,0,0,2015,2016,0,
0,2031,2032,0,0,0,0,0,0,0,0,0,0,0,2031,2032,0,
0,2047,2048,0,0,0,0,0,0,0,0,0,0,0,2047,2048,0,
0,0,0,0,0,0,0,0,0,0,0,0,0,0,0,0,0,
0,0,0,0,0,0,0,0,0,0,0,0,0,0,0,0,0,
0,0,0,0,0,0,0,0,0,0,0,0,0,0,0,0,0,
0,0,0,0,0,0,0,0,0,0,0,0,0,0,0,0,0,
0,2119,2120,2119,2118,0,0,0,0,0,0,0,2121,2123,2121,2122,0,
0,2135,2136,2135,2134,0,0,0,0,0,0,0,2137,2139,2137,2138,0,
0,0,0,0,0,0,0,0,0,0,0,0,0,0,0,0,0
</data>
 </layer>
 <layer id="5" name="CollisionDec" width="17" height="12">
  <data encoding="csv">
0,0,0,0,0,0,0,0,0,0,0,0,0,0,0,0,0,
0,0,0,0,0,0,0,0,0,0,0,0,0,0,0,0,0,
0,0,0,0,0,0,0,0,0,0,0,0,0,0,0,0,0,
0,0,0,0,0,0,0,0,0,0,0,0,0,0,0,0,0,
0,0,0,0,0,0,0,0,0,0,0,0,0,0,0,0,0,
0,2590,2591,0,0,0,0,0,0,0,0,0,0,0,0,0,0,
0,2606,2607,0,0,0,0,0,0,0,0,0,0,1461,1462,1463,0,
0,2622,2623,0,0,0,0,0,0,0,0,0,0,1477,1478,1479,0,
0,0,0,0,0,0,0,0,0,0,0,0,0,1493,1494,1495,0,
0,2085,0,0,0,0,0,0,0,0,0,0,0,0,2085,2369,0,
0,2101,0,0,0,0,0,0,0,0,0,0,0,0,2101,2385,0,
0,0,0,0,0,0,0,0,0,0,0,0,0,0,0,0,0
</data>
 </layer>
 <layer id="7" name="TopDec" width="17" height="12">
  <data encoding="csv">
0,0,0,0,0,0,0,0,0,0,0,0,0,0,0,0,0,
0,0,0,0,0,0,0,0,0,0,0,0,0,0,0,0,0,
0,0,0,0,0,0,0,0,0,0,0,0,0,0,0,0,0,
0,0,0,0,0,0,0,0,0,0,0,0,0,0,0,0,0,
0,0,0,0,0,0,0,0,0,0,0,0,0,0,0,0,0,
0,0,0,0,0,0,0,0,0,0,0,0,0,0,1472,1472,0,
0,0,0,0,0,0,0,0,0,0,0,0,0,0,1488,1488,0,
0,0,0,0,0,0,0,0,0,0,0,0,0,0,2133,0,0,
0,0,0,0,0,0,0,0,0,0,0,0,0,0,0,0,0,
0,0,0,0,0,0,0,0,0,0,0,0,0,0,0,0,0,
0,0,0,0,0,0,0,0,0,0,0,0,0,0,0,0,0,
0,0,0,0,0,0,0,0,0,0,0,0,0,0,0,0,0
</data>
 </layer>
 <layer id="8" name="Decor" width="17" height="12">
  <data encoding="csv">
0,0,0,0,0,0,0,0,0,0,0,0,0,0,0,0,0,
0,0,0,0,0,0,0,0,0,0,0,0,0,0,0,0,0,
0,0,0,0,0,0,0,0,0,0,0,0,0,0,0,0,0,
0,0,0,0,0,0,0,0,0,0,0,0,0,0,0,0,0,
0,0,0,0,0,0,0,0,0,0,0,0,0,0,0,0,0,
0,0,0,0,0,0,0,0,0,0,0,0,0,0,0,0,0,
0,0,0,0,0,0,0,0,0,0,0,0,0,0,0,0,0,
0,0,0,0,0,0,0,0,0,0,0,0,0,0,0,0,0,
0,0,0,0,0,0,0,0,0,0,0,0,0,0,0,0,0,
0,0,0,0,0,0,0,0,0,0,0,0,0,0,0,0,0,
0,0,0,0,0,0,0,0,0,0,0,0,0,0,0,0,0,
0,0,0,0,0,0,0,0,0,0,0,0,0,0,0,0,0
</data>
 </layer>
</map>
