<?xml version="1.0" encoding="UTF-8"?>
<map version="1.10" tiledversion="1.11.2" orientation="orthogonal" renderorder="right-down" width="15" height="15" tilewidth="16" tileheight="16" infinite="0" nextlayerid="10" nextobjectid="1">
 <tileset firstgid="1" source="tileset.tsx"/>
 <tileset firstgid="1301" source="shop_walls_yellow.tsx"/>
 <tileset firstgid="1305" source="modern_room_build.tsx"/>
 <tileset firstgid="1696" source="modern_interior.tsx"/>
 <layer id="1" name="floor" width="15" height="15">
  <data encoding="csv">
1504,1504,1504,1504,1504,1504,1504,1504,1504,1504,1504,1504,1504,1504,1504,
1504,1504,1504,1504,1504,1504,1504,1504,1504,1504,1504,1504,1504,1504,1504,
1504,1504,1504,1504,1504,1504,1504,1504,1504,1504,1504,1504,1504,1504,1504,
1504,1504,1504,1504,1504,1504,1504,1504,1504,1504,1504,1504,1504,1504,1504,
1504,1504,1504,1504,1504,1504,1504,1504,1504,1504,1504,1504,1504,1504,1504,
1504,1504,1504,1504,1504,1504,1504,1504,1504,1504,1504,1504,1504,1504,1504,
1504,1504,1504,1504,1504,1504,1504,1504,1504,1504,1504,1504,1504,1504,1504,
1504,1504,1504,1504,1504,1504,1504,1504,1504,1504,1504,1504,1504,1504,1504,
1504,1504,1504,1504,1504,1504,1504,1504,1504,1504,1504,1504,1504,1504,1504,
1504,1504,1504,1504,1504,1504,1504,1504,1504,1504,1504,1504,1504,1504,1504,
1504,1504,1504,1504,1504,1504,1504,1504,1504,1504,1504,1504,1504,1504,1504,
1504,1504,1504,1504,1504,1504,1504,1504,1504,1504,1504,1504,1504,1504,1504,
1504,1504,1504,1504,1504,1504,1504,1504,1504,1504,1504,1504,1504,1504,1504,
1504,1504,1504,1504,1504,1504,1504,1504,1504,1504,1504,1504,1504,1504,1504,
1504,1504,1504,1504,1504,1504,1504,1504,1504,1504,1504,1504,1504,1504,1504
</data>
 </layer>
 <layer id="2" name="collision_wall" width="15" height="15">
  <data encoding="csv">
407,408,408,408,408,408,408,408,408,408,408,408,408,408,409,
615,1304,1302,1304,1304,1304,1301,1302,1303,1301,1303,1302,1301,1303,617,
615,1303,1303,1303,1304,1302,1301,1302,1304,1302,1301,1303,1303,1303,617,
615,0,0,0,0,0,0,0,0,0,0,0,0,0,617,
615,0,0,0,0,0,0,0,0,0,0,0,0,0,617,
615,0,0,0,0,0,0,0,0,0,0,0,0,0,617,
615,0,0,0,0,0,0,0,0,0,0,0,0,0,617,
615,0,0,0,0,0,0,0,0,0,0,0,0,0,617,
615,0,0,0,0,0,0,0,0,0,0,0,0,0,617,
615,0,0,0,0,0,0,0,0,0,0,0,0,0,617,
615,0,0,0,0,0,0,0,0,0,0,0,0,0,617,
615,0,0,0,0,0,0,0,0,0,0,0,0,0,617,
615,0,0,0,0,0,0,0,0,0,0,0,0,0,617,
615,0,0,0,0,0,0,0,0,0,0,0,0,0,617,
667,668,668,668,668,668,0,0,0,668,668,668,668,668,669
</data>
 </layer>
 <layer id="6" name="collision" width="15" height="15">
  <data encoding="csv">
0,0,0,0,0,0,0,0,0,0,0,0,0,0,0,
0,0,0,0,1938,1939,1938,1939,0,1938,1939,0,0,0,0,
0,0,0,0,1954,1955,1954,1955,0,1954,1955,0,0,0,0,
0,0,0,0,1970,1971,1970,1971,1883,1970,1971,0,0,0,0,
0,0,0,0,0,0,0,0,0,0,0,0,0,0,0,
0,0,0,0,0,0,0,0,2796,2797,2796,2797,2796,2797,0,
0,2796,2797,2796,2797,0,0,0,2812,2813,2812,2813,2812,2813,0,
0,2812,2813,2812,2813,0,0,0,2828,2829,2828,2829,2828,2829,0,
0,2828,2829,2828,2829,0,0,0,0,0,0,0,0,0,0,
0,0,0,0,0,0,0,0,0,0,0,0,0,0,0,
0,0,0,0,0,0,0,0,0,0,0,0,0,0,0,
0,2645,2646,2645,2646,0,0,0,0,0,0,0,0,0,0,
0,2661,2662,2661,2662,0,0,0,0,0,0,0,0,0,0,
0,0,0,0,0,0,0,0,0,0,0,0,0,0,0,
0,0,0,0,0,0,0,0,0,0,0,0,0,0,0
</data>
 </layer>
 <layer id="9" name="carpet" width="15" height="15">
  <data encoding="csv">
0,0,0,0,0,0,0,0,0,0,0,0,0,0,0,
0,0,0,0,0,0,0,0,0,0,0,0,0,0,0,
0,0,0,0,0,0,0,0,0,0,0,0,0,0,0,
0,0,0,0,0,0,0,0,0,0,0,0,0,0,0,
0,0,0,0,0,0,0,0,0,0,0,0,0,0,0,
0,0,0,0,0,0,0,0,0,0,0,0,0,0,0,
0,0,0,0,0,0,0,0,0,0,0,0,0,0,0,
0,0,0,0,0,0,0,0,0,0,0,0,0,0,0,
0,0,0,0,0,0,0,0,0,0,0,0,0,0,0,
0,0,0,0,0,0,1885,1886,1887,0,0,0,0,0,0,
0,0,0,0,0,0,1901,1902,1903,0,0,0,0,0,0,
0,0,0,0,0,0,1917,1918,1919,0,0,0,0,0,0,
0,0,0,0,0,0,1933,1934,1935,0,0,0,0,0,0,
0,0,0,0,0,0,0,0,0,0,0,0,0,0,0,
0,0,0,0,0,0,0,0,0,0,0,0,0,0,0
</data>
 </layer>
 <layer id="7" name="collision2" width="15" height="15">
  <data encoding="csv">
0,0,0,0,0,0,0,0,0,0,0,0,0,0,0,
0,0,0,0,0,0,0,0,0,0,0,0,0,0,0,
0,0,0,0,0,0,0,0,0,0,0,0,0,0,0,
0,0,0,0,0,0,0,0,0,0,0,0,0,0,0,
0,0,0,0,0,0,0,0,0,0,0,0,0,0,0,
0,0,0,0,0,0,0,0,0,0,0,0,0,0,0,
0,0,0,0,0,0,0,0,0,0,0,0,0,0,0,
0,0,0,0,0,0,0,0,0,0,0,0,0,0,0,
0,2794,2795,2794,2795,0,0,0,0,0,0,0,0,883,0,
0,2810,2811,2810,2811,0,0,0,0,0,0,0,0,0,0,
0,2826,2827,2613,2614,0,0,0,0,0,0,0,830,0,0,
0,2627,2628,2629,2630,0,0,0,0,0,0,0,882,0,0,
0,0,0,0,0,0,0,0,0,0,0,0,934,935,0,
0,0,0,0,0,0,0,0,0,0,0,0,0,0,0,
0,0,0,0,0,0,0,0,0,0,0,0,0,0,0
</data>
 </layer>
 <layer id="3" name="decor_1" width="15" height="15">
  <data encoding="csv">
0,0,0,0,0,0,0,0,0,0,0,0,0,0,0,
0,0,2087,2088,1938,1939,1938,1939,0,1938,1939,2087,2088,0,0,
0,721,2103,2104,1954,1955,1954,1955,1867,1954,1955,2103,2104,721,0,
0,773,0,0,1970,1971,1970,1971,1883,1970,1971,0,0,773,0,
0,0,0,0,0,0,0,0,0,0,0,0,0,0,0,
0,0,0,0,0,0,0,0,2794,2795,2842,2843,2794,2795,0,
0,2796,2797,2796,2797,0,0,0,2810,2811,2858,2859,2810,2811,0,
0,2812,2813,2812,2813,0,0,0,2826,2827,2874,2875,2826,2827,0,
0,2828,2829,2828,2829,0,0,0,0,0,0,0,0,883,0,
0,0,0,0,0,0,0,0,0,0,0,0,0,0,0,
0,0,0,0,0,0,0,0,0,0,0,0,830,0,0,
0,0,0,0,0,0,0,0,0,0,0,0,882,0,0,
0,721,0,0,0,0,0,0,0,0,0,0,934,935,0,
0,773,0,0,0,0,0,0,0,0,0,0,0,0,0,
0,0,0,0,0,0,0,0,0,0,0,0,0,0,0
</data>
 </layer>
 <layer id="4" name="decor_2" width="15" height="15">
  <data encoding="csv">
0,0,0,0,0,0,0,0,0,0,0,0,0,0,0,
0,0,0,0,0,0,0,0,0,0,0,0,0,0,0,
0,0,0,0,0,0,0,0,0,0,0,0,0,0,0,
0,0,0,0,0,0,0,0,0,0,0,0,0,0,0,
0,0,0,0,0,0,0,0,0,0,0,0,0,0,0,
0,0,0,0,0,0,0,0,0,0,0,0,0,0,0,
0,0,0,0,0,0,0,0,0,0,0,0,0,0,0,
0,0,0,0,0,0,0,0,0,0,0,0,0,0,0,
0,2842,2843,2842,2843,0,0,0,0,0,0,0,0,0,0,
0,2858,2859,2858,2859,0,0,0,0,0,0,0,0,0,0,
0,2874,2875,2874,2875,0,0,0,0,0,0,0,0,0,0,
0,2645,2646,2645,2646,0,0,0,0,0,0,0,0,0,0,
0,2661,2662,2661,2662,0,0,0,0,0,0,0,0,721,0,
0,0,0,0,0,0,0,0,0,0,0,0,0,773,0,
0,0,0,0,0,0,0,0,0,0,0,0,0,0,0
</data>
 </layer>
 <layer id="5" name="decor_3" width="15" height="15">
  <data encoding="csv">
0,0,0,0,0,0,0,0,0,0,0,0,0,0,0,
0,0,0,0,0,0,0,0,0,0,0,0,0,0,0,
0,0,0,0,0,0,0,0,0,0,0,0,0,0,0,
0,0,0,0,0,0,0,0,0,0,0,0,0,0,0,
0,0,0,0,0,0,0,0,0,0,0,0,0,0,0,
0,0,0,0,0,0,0,0,0,0,0,0,0,0,0,
0,0,0,0,0,0,0,0,0,0,0,0,0,0,0,
0,0,0,0,0,0,0,0,0,0,0,0,0,2285,0,
0,0,0,0,0,0,0,0,0,0,0,0,0,2301,0,
0,0,0,0,0,0,0,0,0,0,0,0,0,0,0,
0,0,0,2613,2614,0,0,0,0,0,0,0,0,0,0,
0,2627,2628,2629,2630,0,0,0,0,0,0,0,2480,0,0,
0,0,0,0,0,0,0,0,0,0,0,0,2496,0,0,
0,0,0,0,0,0,0,0,0,0,0,0,0,0,0,
0,0,0,0,0,0,0,0,0,0,0,0,0,0,0
</data>
 </layer>
</map>
