<?xml version="1.0" encoding="UTF-8"?>
<map version="1.10" tiledversion="1.11.2" orientation="orthogonal" renderorder="right-down" width="15" height="15" tilewidth="16" tileheight="16" infinite="0" nextlayerid="9" nextobjectid="1">
 <tileset firstgid="1" source="tileset.tsx"/>
 <layer id="3" name="Floor2" width="15" height="15">
  <data encoding="csv">
133,1111,1112,1112,1112,1112,1112,1112,1113,282,109,109,109,109,109,
133,133,133,133,133,133,133,133,282,109,109,109,109,109,109,
133,133,133,133,133,133,109,133,109,109,109,109,109,109,109,
133,109,133,133,109,133,133,133,109,109,109,109,109,109,109,
133,133,133,133,133,133,133,109,109,109,109,109,109,109,109,
109,109,133,133,109,109,109,109,109,109,109,109,109,109,109,
109,109,109,109,109,109,109,109,109,109,109,109,109,109,109,
109,109,109,109,109,109,109,109,109,109,109,109,109,109,109,
109,109,109,109,109,109,109,109,109,109,109,109,109,109,109,
109,109,109,109,109,109,109,109,109,109,109,109,109,109,109,
109,109,109,109,109,109,109,109,109,109,109,109,109,109,109,
109,109,109,109,109,109,109,109,109,109,109,109,109,109,109,
109,109,109,109,109,109,109,109,109,109,109,109,109,109,109,
109,109,109,109,109,109,109,109,109,109,109,109,109,109,109,
109,109,109,109,109,109,109,109,109,109,109,109,109,109,109
</data>
 </layer>
 <layer id="1" name="Floor" width="15" height="15">
  <data encoding="csv">
130,0,0,0,0,0,0,0,0,125,340,340,340,340,0,
124,74,75,75,75,75,75,75,0,125,340,340,340,340,0,
176,177,130,130,130,237,130,130,130,125,340,340,340,340,0,
130,130,130,235,337,338,130,130,130,125,340,340,340,340,0,
130,130,130,130,80,82,130,130,130,125,340,340,340,340,0,
130,130,130,183,0,181,130,130,131,0,340,340,340,340,0,
181,182,183,0,0,0,181,182,183,0,340,340,340,340,0,
0,0,61,0,0,0,0,0,0,0,340,340,340,340,0,
0,0,114,0,0,0,77,79,0,0,340,340,340,340,0,
0,0,60,60,60,61,181,183,0,0,340,340,340,340,0,
0,0,0,0,0,113,0,0,0,0,340,340,340,340,0,
0,0,0,0,0,113,0,0,0,0,340,340,340,340,0,
0,0,0,0,0,113,0,0,0,0,340,340,340,340,0,
0,0,0,0,0,113,0,0,0,0,340,340,340,340,0,
0,0,0,0,0,113,0,0,0,0,340,340,340,340,0
</data>
 </layer>
 <layer id="6" name="PokemonBush" width="15" height="15">
  <data encoding="csv">
6,0,0,0,0,0,0,0,0,0,0,0,0,0,0,
0,0,6,0,0,0,0,6,6,0,0,0,0,0,0,
0,0,0,0,0,0,0,6,0,0,0,0,0,0,0,
6,6,0,0,0,0,0,0,0,0,0,0,0,0,0,
6,0,0,0,0,0,0,0,0,0,0,0,0,0,0,
0,0,0,0,0,0,0,6,6,0,0,0,0,0,0,
0,0,0,0,0,0,0,6,6,0,0,0,0,0,0,
0,0,0,0,0,0,0,0,6,0,0,0,0,0,0,
7,7,0,0,0,0,0,0,0,0,0,0,0,0,0,
7,0,0,7,7,0,0,0,0,0,0,0,0,0,0,
0,0,0,7,0,0,0,0,0,0,0,0,0,0,0,
0,0,0,0,0,0,0,0,7,0,0,0,0,0,0,
0,0,0,0,0,0,7,0,0,0,0,0,0,0,0,
7,7,0,0,0,0,7,0,7,0,0,0,0,0,0,
7,7,0,0,0,0,7,7,0,0,0,0,0,0,0
</data>
 </layer>
 <layer id="7" name="Decor" width="15" height="15">
  <data encoding="csv">
0,0,0,0,0,0,0,0,0,0,0,0,0,0,0,
1213,0,0,1264,0,0,0,0,0,0,0,0,0,0,0,
0,0,0,0,0,0,0,0,0,0,0,0,0,0,0,
0,0,0,0,0,0,0,1264,0,0,0,0,0,0,0,
0,0,1214,0,0,0,0,0,0,0,0,0,0,0,0,
0,0,0,0,0,0,0,0,0,0,0,0,0,0,0,
0,0,0,0,0,0,0,0,0,0,0,0,0,0,0,
0,1207,0,0,0,1156,0,0,0,0,0,0,0,0,0,
0,0,0,0,0,0,0,0,1260,0,0,0,0,0,0,
0,0,0,0,0,0,0,0,0,0,0,0,0,0,0,
0,0,0,0,0,0,1207,0,0,0,0,0,0,0,0,
1207,0,0,0,1260,0,0,0,0,0,0,0,0,0,0,
0,1208,0,0,1206,0,0,1154,0,0,0,0,0,0,0,
0,0,0,1208,0,0,0,0,0,0,0,0,0,0,0,
0,0,0,0,0,0,0,0,0,0,0,0,0,0,0
</data>
 </layer>
 <layer id="4" name="CollisionTree" width="15" height="15">
  <data encoding="csv">
0,0,0,0,0,0,0,0,0,0,0,0,0,0,0,
0,0,0,0,0,0,0,0,0,0,0,0,0,0,0,
0,0,0,0,0,0,0,0,0,0,0,0,0,0,0,
0,0,0,0,0,0,0,0,0,0,0,0,0,0,0,
0,0,0,0,0,0,0,0,0,0,0,0,0,0,0,
0,0,0,1146,1147,0,1146,1147,0,0,0,0,0,0,0,
0,0,0,1198,1199,0,1198,1199,0,0,0,0,0,0,0,
0,0,0,1250,1251,0,1250,1251,0,0,0,0,0,0,0,
0,0,0,0,0,0,0,0,0,0,0,0,0,0,0,
0,1146,1147,0,0,0,0,0,0,0,0,0,0,0,0,
0,1198,1199,0,0,0,0,0,0,0,0,0,0,0,0,
0,1250,1251,0,0,0,0,0,0,0,0,0,0,0,0,
0,0,0,0,0,0,0,0,0,0,0,0,0,0,0,
0,0,0,0,0,0,0,0,0,0,0,0,0,0,0,
0,0,0,0,0,0,0,0,0,0,0,0,0,0,0
</data>
 </layer>
 <layer id="8" name="CollisionTree3" width="15" height="15">
  <data encoding="csv">
0,0,0,991,992,1043,1044,0,0,0,0,0,0,0,0,
0,0,0,1043,1044,1095,1096,0,0,0,0,0,0,0,0,
0,0,0,1095,1096,0,0,0,0,0,0,0,0,0,0,
0,991,992,0,0,0,0,0,0,0,0,0,0,0,0,
0,1043,1044,0,0,0,0,0,0,0,0,0,0,0,0,
990,1095,1096,0,0,0,0,0,0,0,0,0,0,0,0,
1042,0,0,0,0,0,0,0,0,0,0,0,0,0,0,
1094,0,0,0,0,0,0,0,0,0,0,0,0,0,0,
0,0,0,0,0,0,0,989,990,0,0,0,0,0,0,
0,0,0,0,0,0,0,1041,1042,0,0,0,0,0,0,
0,0,0,0,0,0,0,1093,1094,0,0,0,0,0,0,
0,0,0,0,0,0,0,0,0,0,0,0,0,0,0,
0,0,0,0,0,0,0,0,0,0,0,0,0,0,0,
0,0,0,0,0,0,0,0,0,0,0,0,0,0,0,
0,0,0,0,0,0,0,0,0,0,0,0,0,0,0
</data>
 </layer>
 <layer id="5" name="CollisionTree2" width="15" height="15">
  <data encoding="csv">
0,0,0,0,0,0,0,0,0,0,0,0,0,0,0,
0,0,0,0,0,0,1148,0,0,0,0,0,0,0,0,
0,0,0,0,991,992,1200,0,1148,0,0,0,0,0,0,
0,0,0,0,1043,1044,1148,1148,1200,0,0,0,0,0,0,
0,0,0,0,1095,1096,1200,1200,0,0,0,0,0,0,0,
0,0,0,0,0,0,0,0,0,0,0,0,0,0,0,
0,0,0,0,989,990,0,0,0,0,0,0,0,0,0,
0,0,0,0,1041,1042,0,0,0,0,0,0,0,0,0,
0,0,0,0,1093,1094,0,0,0,0,0,0,0,0,0,
0,0,0,0,0,0,989,990,0,0,0,0,0,0,0,
989,990,0,0,0,0,1041,1042,0,0,0,0,0,0,0,
1041,1042,989,990,0,0,1093,1094,1145,0,0,0,0,0,0,
1093,1094,1041,1042,0,0,0,1145,1197,0,0,0,0,0,0,
0,0,1093,1094,0,0,0,1197,1145,0,0,0,0,0,0,
989,990,989,990,0,0,0,0,1197,0,0,0,0,0,0
</data>
 </layer>
 <layer id="2" name="Collision" width="15" height="15">
  <data encoding="csv">
0,0,0,0,0,0,0,0,0,125,0,0,0,0,123,
0,0,0,0,0,0,0,0,0,125,0,0,0,0,123,
0,0,0,0,0,0,0,0,0,125,0,0,0,0,123,
0,0,0,0,0,0,0,0,0,125,0,0,0,0,123,
0,0,0,0,0,0,0,0,0,125,0,0,0,0,123,
0,0,0,0,0,0,0,0,0,113,0,0,0,0,123,
0,0,0,0,0,0,0,0,0,113,0,0,0,0,111,
0,0,0,0,0,0,0,0,0,113,0,0,0,0,111,
0,0,0,0,0,0,0,0,0,113,0,0,0,0,111,
0,0,0,0,0,0,0,0,0,113,0,0,0,0,111,
0,0,0,0,0,0,0,0,0,113,0,0,0,0,111,
0,0,0,0,0,0,0,0,0,113,0,0,0,0,111,
0,0,0,0,0,0,0,0,0,113,0,0,0,0,111,
0,0,0,0,0,0,0,0,0,113,0,0,0,0,111,
0,0,0,0,0,0,0,0,0,113,0,0,0,0,111
</data>
 </layer>
</map>
