<?xml version="1.0" encoding="UTF-8"?>
<map version="1.10" tiledversion="1.11.2" orientation="orthogonal" renderorder="right-down" width="17" height="12" tilewidth="16" tileheight="16" infinite="0" nextlayerid="7" nextobjectid="1">
 <tileset firstgid="1" source="tileset.tsx"/>
 <tileset firstgid="1301" source="modern_interior.tsx"/>
 <tileset firstgid="2725" source="modern_room_build.tsx"/>
 <layer id="1" name="floor" width="17" height="12">
  <data encoding="csv">
2855,2856,2857,2855,2856,2857,2855,2856,2857,2855,2856,2857,2855,2856,2857,2855,2856,
2872,2873,2874,2872,2873,2874,2872,2873,2874,2872,2873,2874,2872,2873,2874,2872,2873,
2855,2856,2857,2855,2856,2857,2855,2856,2857,2855,2856,2857,2855,2856,2857,2855,2856,
2872,2873,2873,2873,2873,2873,2874,2874,2874,2874,2874,2873,2873,2873,2873,2873,2873,
2873,2873,2873,2873,2873,2873,2873,2874,2874,2874,2873,2873,2873,2873,2873,2873,2873,
2872,2873,2873,2873,2873,2873,2873,2874,2874,2874,2873,2873,2873,2873,2873,2873,2873,
2855,2873,2873,2873,2873,2873,2873,2874,2874,2874,2873,2873,2873,2873,2873,2873,2856,
2872,2873,2873,2873,2873,2873,2873,2874,2874,2874,2873,2873,2873,2873,2873,2873,2873,
2855,2873,2873,2873,2873,2873,2873,2874,2874,2874,2873,2873,2873,2873,2873,2873,2873,
2873,2873,2873,2873,2873,2873,2873,2874,2874,2874,2873,2873,2873,2873,2873,2873,2873,
2873,2873,2873,2873,2873,2873,2874,2874,2874,2874,2874,2873,2873,2873,2873,2873,2856,
2872,2873,2874,2872,2873,2874,2872,2874,2874,2874,2873,2873,2873,2873,2873,2873,2873
</data>
 </layer>
 <layer id="4" name="carpet" width="17" height="12">
  <data encoding="csv">
0,0,0,0,0,0,0,0,0,0,0,0,0,0,0,0,0,
0,0,0,0,0,0,0,0,0,0,0,0,0,0,0,0,0,
0,0,0,0,0,0,0,0,0,0,0,0,0,0,0,0,0,
0,0,0,0,0,0,0,0,0,0,0,0,0,0,0,0,0,
0,0,0,0,0,0,0,0,0,0,0,0,0,0,0,0,0,
0,1490,1491,1492,0,0,0,0,0,0,0,0,0,0,0,0,0,
0,1506,1507,1508,0,0,0,0,0,0,0,0,0,0,0,0,0,
0,1522,1523,1524,0,0,0,0,0,0,0,0,0,0,0,0,0,
0,1538,1539,1540,0,0,0,0,0,0,0,0,0,0,0,0,0,
0,0,0,0,0,0,0,0,0,0,0,0,0,0,0,0,0,
0,0,0,0,0,0,0,0,0,0,0,0,0,0,0,0,0,
0,0,0,0,0,0,0,0,0,0,0,0,0,0,0,0,0
</data>
 </layer>
 <layer id="2" name="collisionwall" width="17" height="12">
  <data encoding="csv">
407,408,408,408,408,408,408,408,408,408,408,408,408,408,408,408,409,
459,460,460,460,460,460,460,460,460,460,460,460,460,460,460,460,461,
511,512,512,512,512,512,512,512,512,512,512,512,512,512,512,512,513,
620,0,0,0,0,0,0,0,0,0,0,0,0,0,0,0,570,
620,0,0,0,0,0,0,0,0,0,0,0,0,0,0,0,570,
620,0,0,0,0,0,0,0,0,0,0,0,0,0,0,0,570,
620,0,0,0,0,0,0,0,0,0,0,0,0,0,0,0,570,
620,0,0,0,0,0,0,0,0,0,0,0,0,0,0,0,570,
620,0,0,0,0,0,0,0,0,0,0,0,0,0,0,0,570,
620,0,0,0,0,0,0,0,0,0,0,0,0,0,0,0,570,
620,0,0,0,0,0,0,0,0,0,0,0,0,0,0,0,570,
672,673,673,673,673,673,673,0,0,0,673,673,673,673,673,673,674
</data>
 </layer>
 <layer id="5" name="CollisionDec2" width="17" height="12">
  <data encoding="csv">
0,0,0,0,0,0,0,0,0,0,0,0,0,0,0,0,0,
0,0,0,0,0,0,0,0,0,0,0,0,0,0,0,0,0,
0,2018,2019,0,0,0,0,0,0,0,0,0,0,0,2018,2019,0,
0,2034,2035,0,0,0,0,0,0,0,0,0,0,0,2034,2035,0,
0,0,0,0,0,0,0,0,0,0,0,0,0,0,0,0,0,
0,0,0,0,0,0,0,0,0,0,0,0,0,0,0,0,0,
0,0,0,0,0,0,0,0,0,0,0,0,0,0,0,0,0,
0,0,0,0,0,0,0,0,0,0,0,0,0,0,1810,0,0,
0,0,0,0,0,0,0,0,0,0,0,0,0,0,1826,0,0,
0,0,0,0,0,0,0,0,0,0,0,0,0,0,0,0,0,
0,0,0,0,0,0,0,0,0,0,0,0,0,0,0,0,0,
0,0,0,0,0,0,0,0,0,0,0,0,0,0,0,0,0
</data>
 </layer>
 <layer id="3" name="CollisionDec" width="17" height="12">
  <data encoding="csv">
0,0,0,0,0,0,0,0,0,0,0,0,0,0,0,0,0,
0,0,0,1512,1513,0,0,0,0,0,0,0,1512,1513,0,0,0,
0,0,0,1528,1529,0,0,0,0,0,0,0,1528,1529,0,0,0,
0,1312,1312,1313,0,0,0,0,0,0,0,0,0,0,0,0,0,
0,1328,1328,1329,0,0,0,0,0,0,0,0,0,0,0,0,0,
0,0,0,1345,0,0,0,0,0,0,0,0,0,1311,1312,1312,0,
0,0,0,1345,0,0,0,0,0,0,0,0,0,1327,1328,1328,0,
0,0,0,1345,0,0,0,0,0,0,0,0,0,1330,0,0,0,
0,0,0,1345,0,0,0,0,0,0,0,0,0,1343,0,1362,0,
0,1360,1360,1361,0,0,0,0,0,0,0,0,0,1359,1360,1378,0,
0,0,0,0,0,0,0,0,0,0,0,0,0,0,0,0,0,
0,0,0,0,0,0,0,0,0,0,0,0,0,0,0,0,0
</data>
 </layer>
 <layer id="6" name="CollisionDec2" width="17" height="12">
  <data encoding="csv">
0,0,0,0,0,0,0,0,0,0,0,0,0,0,0,0,0,
0,2063,2064,0,0,2063,2064,0,0,0,2063,2064,0,0,2063,2064,0,
0,0,0,0,0,0,0,0,0,0,0,0,0,0,0,0,0,
0,0,0,0,0,0,0,0,0,0,0,0,0,0,0,0,0,
0,0,0,0,0,0,0,0,0,0,0,0,0,0,0,0,0,
0,0,1809,0,0,0,0,0,0,0,0,0,0,0,0,0,0,
0,0,1825,0,0,0,0,0,0,0,0,0,0,0,0,0,0,
0,0,1809,0,0,0,0,0,0,0,0,0,0,0,0,0,0,
0,0,1825,0,0,0,0,0,0,0,0,0,0,0,0,0,0,
0,2018,2019,0,0,0,0,0,0,0,0,0,0,0,2018,2019,0,
0,2034,2035,0,0,0,0,0,0,0,0,0,0,0,2034,2035,0,
0,0,0,0,0,0,0,0,0,0,0,0,0,0,0,0,0
</data>
 </layer>
</map>
